!!!COM: Bach, Johann Sebastian
!!!CDT: 1685/3//-1750/7/28/
!!!OTL@@DE: Herr Jesu Christ, dich zu uns wend'
!!!AGN: 4-Part Chorale
!!!SCT: Erk 136
!!!SCT: BWV 332
!!!YEC: Copyright 2003 by Craig Stuart Sapp
!!!license: GNU General Public License (http://www.gnu.org/copyleft/gpl.html)
!!!SMA: 371 Bach Chorales, edited by Ludwig Erk, C.F. Peters
!!!PDT: 1850, 1865
!!!ONB: Harmony and Root analysis done manually by Craig Sapp
**kern	**kern	**kern	**kern	**root	**harm	**kern
!bass	!tenor	!alto	!soprno	!	!	!
*Iorgan	*Iorgan	*Iorgan	*Iorgan	*Iorgan	*	*Iorgan
*clefF4	*clefF4	*clefG2	*clefG2	*	*	*
*k[f#]	*k[f#]	*k[f#]	*k[f#]	*k[f#]	*k[f#]	*k[f#]
*G:	*G:	*G:	*G:	*G:	*G:	*G:
*M4/4	*M4/4	*M4/4	*M4/4	*M4/4	*M4/4	*M4/4
*met(C)	*met(C)	*met(C)	*met(C)	*met(C)	*met(C)	*met(C)
*MM60	*MM60	*MM60	*MM60	*MM60	*MM60	*MM60
4GG	4B	4d	4g	4GG	I	4G 4b 4dd
=1	=1	=1	=1	=1	=1	=1
4GG	4d	4g	4b	4GG	I	4G 4b 4dd
4FF#	4d	[4a	4dd	4DD	Vb	4d 4F# 4a
8GG	4d	8a]	4b	4GG	I	4G 4b 4dd
8BB	.	4g	.	.	.	.
4D	4d	.	4a	4DD	V	4D 4f# 4a
.	.	8f#	.	.	.	.
=2	=2	=2	=2	=2	=2	=2
8G	4d	4g	4b	4GG	I	4G 4b 4dd
8F#	.	.	.	.	.	.
4E	4e	4g	4cc#	4CC#	viiob/V	4c# 4E 4g
4D;	4A;	4f#;	4dd;	4DD;	V;	4D; 4f#; 4a;
8A	4cn	4a	4ee	4AA	ii	4A 4cc 4ee
8G	.	.	.	.	.	.
=3	=3	=3	=3	=3	=3	=3
4F#	4d	4.a	8dd	4DD	V7	4D 4f# 4a 4cc
.	.	.	8cc	.	.	.
4G	4d	.	4b	4GG	I	4G 4b 4dd
.	.	[8g	.	.	.	.
8C#	8e	8g]	4a	8AA	V7b/V	8a 8C# 8ee 8gg
8D#	4B	8f#	.	8BB	V7b/VI	8b 8D# 8ff# 8aa
8E	.	8e	8g	8EE	vi	8E 8g 8b
8F#	[8A	8d	8a	8DD	Vb	8d 8F# 8a
=4	=4	=4	=4	=4	=4	=4
4G	8A/]	4d	4b	4GG	I	4G 4b 4dd
.	4G	.	.	.	.	.
4Dn	.	4d	4a	4DD	V	4D 4f# 4a
.	8F#	.	.	.	.	.
4GG;	4B;	4d;	4g;	4GG;	I;	4G; 4b; 4dd;
4D	4d	4f#	4a	4DD	V	4D 4f# 4a
=5	=5	=5	=5	=5	=5	=5
8GG	4d	4g	4b	4GG	I	4G 4b 4dd
8AA	.	.	.	.	.	.
8BB	4d	4g	4b	4GG	Ib	4g 4B 4dd
8C#	.	.	.	.	.	.
8D	4d	4g	4a	2DD	V	2D 2f# 2a
8E	.	.	.	.	.	.
8F#	8A	4f#	4dd	.	.	.
8B	8d	.	.	.	.	.
=6	=6	=6	=6	=6	=6	=6
8G	8B	4e	4dd	4EE	vi7	4E 4g 4b 4dd
8E	8G	.	.	.	.	.
8A	4A	4e	4cc#	4AA	V/V	4A 4cc# 4ee
8AA	.	.	.	.	.	.
4D;	4A;	4f#;	4dd;	4DD;	V;	4D; 4f#; 4a;
8G	4G	4d	4b	4GG	V7/IV	4G 4b 4dd 4ff
8Fn	.	.	.	.	.	.
=7	=7	=7	=7	=7	=7	=7
8E	8G	4e	4ccn	4CC	IVb	4c 4E 4g
8F#	8A	.	.	.	.	.
4G	4B	8d	4b	4GG	I	4G 4b 4dd
.	.	[8g	.	.	.	.
8C#	8e	8g]	4a	8AA	V7b/V	8a 8C# 8ee 8gg
8D#	8B	4f#	.	8BB	V7b/VI	8b 8D# 8ff# 8aa
4E	4B	.	4g	4EE	vi	4E 4g 4b
.	.	8e	.	.	.	.
=8	=8	=8	=8	=8	=8	=8
8BB	4B	4d	4g	4GG	Ib	4g 4B 4dd
8Cn	.	.	.	.	.	.
4Dn	4A	4d	4f#	4DD	V	4D 4f# 4a
4GG;	4B;	4d;	4g;	4GG;	I;	4G; 4b; 4dd;
==	==	==	==	==	==	==
*-	*-	*-	*-	*-	*-	*-
